X: 20032
M: 2/4
L: 1/8
K: C
cGGF | FEDC | CDEF | G2 zG | Gccc | cccc | defd |
e2 c>c | dcBA | G2 zA | GAGF | E2G2 | A2B2 | c2 z |]


